outputs/icons/content/push_pin_round.svg

<svg xmlns="http://www.w3.org/2000/svg" width="1200" height="1200" fill="none"><g clip-path="url(#a)"><path fill="#000" fill-rule="evenodd" d="M950 643.5c0-23.5-17-42.5-40-49C846.5 577 800 519 800 450V200h50c27.5 0 50-22.5 50-50s-22.5-50-50-50H350c-27.5 0-50 22.5-50 50s22.5 50 50 50h50v250c0 69-46.5 127-110 144.5-23 6.5-40 25.5-40 49v6.5c0 27.5 22.5 50 50 50h249l1 350c0 27.5 22.5 50 50 50s50-22.5 50-50l-1-350h251c27.5 0 50-22.5 50-50z"/></g><defs><clipPath id="a"><path fill="#fff" d="M0 0h1200v1200H0z"/></clipPath></defs></svg>

<svg width="1200" height="1200" viewBox="0 0 1200 1200" fill="none" xmlns="http://www.w3.org/2000/svg"><g clip-path="url(#clip0_225_3313)"><path fill-rule="evenodd" d="M950 643.5C950 620 933 601 910 594.5C846.5 577 800 519 800 450V200H850C877.5 200 900 177.5 900 150C900 122.5 877.5 100 850 100H350C322.5 100 300 122.5 300 150C300 177.5 322.5 200 350 200H400V450C400 519 353.5 577 290 594.5C267 601 250 620 250 643.5V650C250 677.5 272.5 700 300 700H549L550 1050C550 1077.5 572.5 1100 600 1100C627.5 1100 650 1077.5 650 1050L649 700H900C927.5 700 950 677.5 950 650V643.5Z" fill="black"/></g><defs><clipPath id="clip0_225_3313"><path width="24" fill="white" d="M0 0H1200V1200H0V0z"/></clipPath></defs></svg>
